resources/svg/elevator.svg

<svg xmlns="http://www.w3.org/2000/svg" viewBox="0 0 24 24" fill="currentColor"><path fill="none" stroke="currentColor" stroke-linecap="round" stroke-width="2" d="M1,2.991155 C1,1.89147046 1.88967395,1 2.991155,1 L21.008845,1 C22.1085295,1 23,1.88967395 23,2.991155 L23,21.008845 C23,22.1085295 22.1103261,23 21.008845,23 L2.991155,23 C1.89147046,23 1,22.1103261 1,21.008845 L1,2.991155 Z M16.5,8 L18,10 L15,10 L16.5,8 Z M16.5,16 L18,14 L15,14 L16.5,16 Z M5,13 L6.55613518,9.88772964 C6.80127495,9.3974501 7.44386482,9 8,9 L8,9 C8.55228475,9 9.19907951,9.39815903 9.44386482,9.88772964 L11,13 M6.5,18 L7.75,10 L8,10 L8.25,10 L9.5,18 M8,7 C8.55228475,7 9,6.55228475 9,6 C9,5.44771525 8.55228475,5 8,5 C7.44771525,5 7,5.44771525 7,6 C7,6.55228475 7.44771525,7 8,7 Z"/></svg>

<svg viewBox="0 0 24 24"><path fill="none" stroke="currentColor" stroke-linecap="round" stroke-width="2" d="M1 2.991C1 1.891 1.89 1 2.991 1H21.01C22.109 1 23 1.89 23 2.991V21.01c0 1.1-.89 1.991-1.991 1.991H2.99A1.99 1.99 0 0 1 1 21.009V2.99zM16.5 8l1.5 2h-3l1.5-2zm0 8l1.5-2h-3l1.5 2zM5 13l1.556-3.112C6.801 9.398 7.444 9 8 9h0c.552 0 1.2.398 1.444.888L11 13m-4.5 5l1.25-8h.5l1.25 8M8 7a1 1 0 1 0 0-2a1 1 0 0 0 0 2z"/></svg>
